; HEADER_BLOCK_START
; generated by OrcaSlicer 2.1.1 on 2024-08-06 at 15:13:15
; total layer number: 70
; filament_density: 1.24
; filament_diameter: 1.75
; max_z_height: 10.05
; HEADER_BLOCK_END

; THUMBNAIL_BLOCK_START

;
; THUMBNAIL_BLOCK_END

; THUMBNAIL_BLOCK_START

;
; THUMBNAIL_BLOCK_END

; THUMBNAIL_BLOCK_START

;
; THUMBNAIL_BLOCK_END

; THUMBNAIL_BLOCK_START

;
; THUMBNAIL_BLOCK_END

; external perimeters extrusion width = 0.45mm
; perimeters extrusion width = 0.45mm
; infill extrusion width = 0.45mm
; solid infill extrusion width = 0.45mm
; top infill extrusion width = 0.42mm
; support material extrusion width = 0.36mm
; first layer extrusion width = 0.50mm

; EXECUTABLE_BLOCK_START
M486 S0
M486 Atubulo-v2.stl_id_0_copy_0
M486 S-1
M73 P0 R16
M201 X4000 Y4000 Z400 E5000
M203 X400 Y400 Z12 E80
M204 P4000 R1250 T4000 ; sets acceleration (P, T) and retract acceleration (R), mm/sec^2
M205 X8.00 Y8.00 Z2.00 E10.00 ; sets the jerk limits, mm/sec
;TYPE:Custom
M862.3 P "MINI" ; printer model check
M862.1 P0.4 ; nozzle diameter check
M862.5 P2 ; g-code level check
M862.6 P"Input shaper" ; FW feature check
M115 U6.0.1+14848
G90 ; use absolute coordinates
M83 ; extruder relative mode
M104 S170 ; set extruder temp for bed leveling
M140 S60 ; set bed temp
M109 R170 ; wait for bed leveling temp
M190 S60 ; wait for bed temp
M569 S1 X Y ; set stealthchop for X Y
M204 T1250 ; set travel acceleration
G28 ; home all without mesh bed level
G29 ; mesh bed leveling 
M104 S220 ; set extruder temp
G92 E0

G1 X0 Y-2 Z3 F2400

M109 S220 ; wait for extruder temp

; intro line
G1 X10 Z0.2 F1000
G1 X70 E8 F900
G1 X140 E10 F700
G92 E0

M569 S0 X Y ; set spreadcycle for X Y
M204 T4000 ; restore travel acceleration
M572 W0.06 ; set smooth time
M221 S95 ; set flow
G90
G21
M83 ; use relative distances for extrusion
; filament start gcode
M900 K0.27; Override pressure advance value
M106 S0
;LAYER_CHANGE
;Z:0.15
;HEIGHT:0.15
;BEFORE_LAYER_CHANGE
G92 E0.0
;0.15
M201 X4000 Y4000
M74 W0

M73 P0 R15
G1 E-2.5 F4200
;AFTER_LAYER_CHANGE
;0.15
;_SET_FAN_SPEED_CHANGING_LAYER
M204 P500
M205 X7 Y7
; printing object tubulo-v2.stl id:0 copy 0
M204 T500
M486 S0
M73 P1 R15
G1 X73.058 Y86.629 F24000
G1 Z.2
G1 Z.15
G1 E2.5 F2400
;TYPE:Support
;WIDTH:0.5
G1 F1800
G1 X73.409 Y86.863 E.01233
G1 X77.5 Y86.863 E.11934
G1 X77.5 Y88.85 E.05795
G1 X74.605 Y88.85 E.08446
G1 X74.4 Y89.055 E.00846
G1 X74.4 Y90.945 E.05514
G1 X74.605 Y91.15 E.00846
G1 X77.5 Y91.15 E.08446
G1 X77.5 Y93.137 E.05795
G1 X73.409 Y93.137 E.11934
G1 X73.058 Y93.371 E.01233
G1 X70.475 Y93.371 E.07535
G1 X70.475 Y91.059 E.06747
G2 X70.482 Y89.158 I-1.508 J-.956 E.05847
G1 X70.459 Y86.629 E.0738
G1 X72.988 Y86.629 E.07377
G1 E-1.75 F4200
;WIPE_START
G1 F1800
G1 X71.988 Y86.629 E-.75
;WIPE_END
G1 X74.726 Y89.287 Z.35 F24000
G1 X77.079 Y91.571 Z.35
G1 Z.15
G1 E2.5 F2400
G1 F1800
G1 X77.079 Y92.716 E.03339
G1 X73.282 Y92.716 E.11079
G1 X72.93 Y92.95 E.01233
G1 X70.896 Y92.95 E.05934
G1 X70.896 Y91.122 E.05335
G2 X70.902 Y89.045 I-2.026 J-1.044 E.06289
G1 X70.884 Y87.05 E.05823
G1 X72.93 Y87.05 E.0597
G1 X73.282 Y87.284 E.01233
G1 X77.079 Y87.285 E.11079
G1 X77.079 Y88.429 E.03339
G1 X74.431 Y88.429 E.07726
G1 X73.979 Y88.881 E.01863
G1 X73.979 Y91.119 E.06531
G1 X74.431 Y91.571 E.01863
G1 X77.079 Y91.571 E.07726
G1 X74.32 Y92.196 F24000
G1 F1800
G1 X73.124 Y92.196 E.0349
G1 X72.772 Y92.431 E.01233
G1 X71.416 Y92.431 E.03958
G3 X71.716 Y90.52 I2.595 J-.571 E.05775
G2 X71.421 Y88.906 I-1.933 J-.48 E.04933
G1 X71.408 Y87.569 E.039
G1 X72.772 Y87.569 E.03979
G1 X73.124 Y87.804 E.01233
G1 X74.32 Y87.804 E.0349
G1 X73.459 Y88.665 E.03553
G1 X73.459 Y91.335 E.07788
G1 X74.32 Y92.196 E.03553
G1 X72.939 Y91.694 F24000
G1 F1800
G3 X71.936 Y91.911 I-.664 J-.643 E.03177
G3 X72.236 Y90.637 I1.746 J-.261 E.03911
G1 X72.236 Y89.364 E.03715
G3 X71.933 Y88.089 I1.41 J-1.008 E.03919
G3 X72.939 Y88.306 I.341 J.862 E.03185
G1 X72.939 Y91.694 E.09883
G1 E-1.75 F4200
;WIPE_START
G1 F1800
G1 X72.939 Y90.694 E-.75
;WIPE_END
G1 X75.938 Y93.054 Z.35 F24000
G1 X93.137 Y106.591 Z.35
G1 Z.15
G1 E2.5 F2400
G1 F1800
G1 X93.371 Y106.942 E.01233
G1 X93.371 Y109.525 E.07535
G1 X91.059 Y109.525 E.06747
G2 X89.158 Y109.518 I-.956 J1.508 E.05847
G1 X86.629 Y109.541 E.0738
G1 X86.629 Y106.942 E.07582
G1 X86.863 Y106.591 E.01233
G1 X86.863 Y102.5 E.11934
G1 X88.85 Y102.5 E.05795
G1 X88.85 Y105.395 E.08446
G1 X89.055 Y105.6 E.00846
G1 X90.945 Y105.6 E.05514
G1 X91.15 Y105.395 E.00846
G1 X91.15 Y102.5 E.08446
G1 X93.137 Y102.5 E.05795
G1 X93.137 Y106.521 E.11729
G1 X91.571 Y102.921 F24000
G1 F1800
M73 P2 R15
G1 X92.716 Y102.921 E.03339
G1 X92.716 Y106.718 E.11078
G1 X92.95 Y107.07 E.01233
G1 X92.95 Y109.104 E.05934
G1 X91.121 Y109.104 E.05336
G2 X89.045 Y109.098 I-1.044 J2.026 E.06288
G1 X87.05 Y109.116 E.05822
G1 X87.05 Y107.07 E.0597
G1 X87.284 Y106.718 E.01233
G1 X87.284 Y102.921 E.11079
G1 X88.429 Y102.921 E.03339
G1 X88.429 Y105.569 E.07726
G1 X88.881 Y106.021 E.01863
G1 X91.119 Y106.021 E.06531
G1 X91.571 Y105.569 E.01863
G1 X91.571 Y102.921 E.07726
G1 X92.196 Y105.68 F24000
G1 F1800
G1 X92.196 Y106.876 E.0349
G1 X92.431 Y107.227 E.01233
G1 X92.431 Y108.584 E.03958
G3 X90.52 Y108.284 I-.571 J-2.594 E.05775
G2 X88.906 Y108.579 I-.48 J1.933 E.04933
G1 X87.569 Y108.592 E.039
G1 X87.569 Y107.228 E.03979
G1 X87.804 Y106.876 E.01233
G1 X87.804 Y105.68 E.0349
G1 X88.665 Y106.541 E.03553
G1 X91.335 Y106.541 E.07788
G1 X92.196 Y105.68 E.03553
G1 X91.694 Y107.061 F24000
G1 F1800
G3 X91.911 Y108.064 I-.643 J.664 E.03177
G3 X90.637 Y107.764 I-.261 J-1.746 E.03911
G1 X89.364 Y107.764 E.03715
G3 X88.089 Y108.067 I-1.008 J-1.41 E.03919
G3 X88.306 Y107.061 I.862 J-.341 E.03185
G1 X91.694 Y107.061 E.09883
G1 E-1.75 F4200
;WIPE_START
G1 F1800
G1 X90.694 Y107.061 E-.75
;WIPE_END
G1 X93.444 Y104.415 Z.35 F24000
G1 X109.525 Y88.941 Z.35
G1 Z.15
G1 E2.5 F2400
G1 F1800
G2 X109.518 Y90.842 I1.508 J.956 E.05847
G1 X109.541 Y93.371 E.0738
G1 X106.942 Y93.371 E.07582
G1 X106.591 Y93.137 E.01233
G1 X102.5 Y93.137 E.11934
G1 X102.5 Y91.15 E.05795
G1 X105.395 Y91.15 E.08446
G1 X105.6 Y90.945 E.00846
G1 X105.6 Y89.055 E.05514
G1 X105.395 Y88.85 E.00846
G1 X102.5 Y88.85 E.08446
G1 X102.5 Y86.863 E.05795
G1 X106.591 Y86.863 E.11934
G1 X106.942 Y86.629 E.01233
G1 X109.525 Y86.629 E.07535
G1 X109.525 Y88.871 E.06542
G1 X102.921 Y88.429 F24000
G1 F1800
G1 X102.921 Y87.284 E.03339
G1 X106.718 Y87.284 E.11078
G1 X107.07 Y87.05 E.01233
G1 X109.104 Y87.05 E.05934
G1 X109.104 Y88.878 E.05335
G2 X109.098 Y90.955 I2.027 J1.044 E.06289
G1 X109.116 Y92.95 E.05822
G1 X107.07 Y92.95 E.0597
G1 X106.718 Y92.716 E.01233
G1 X102.921 Y92.716 E.11079
G1 X102.921 Y91.571 E.03339
G1 X105.569 Y91.571 E.07726
G1 X106.021 Y91.119 E.01863
G1 X106.021 Y88.881 E.06531
G1 X105.569 Y88.429 E.01863
G1 X102.921 Y88.429 E.07726
G1 X105.68 Y87.804 F24000
G1 F1800
G1 X106.876 Y87.804 E.0349
G1 X107.228 Y87.569 E.01233
G1 X108.584 Y87.569 E.03958
G3 X108.284 Y89.48 I-2.594 J.571 E.05775
G2 X108.579 Y91.094 I1.933 J.48 E.04933
G1 X108.592 Y92.431 E.039
G1 X107.228 Y92.431 E.03979
G1 X106.876 Y92.196 E.01233
G1 X105.68 Y92.196 E.0349
G1 X106.541 Y91.335 E.03553
G1 X106.541 Y88.665 E.07788
G1 X105.68 Y87.804 E.03553
G1 X107.061 Y88.306 F24000
G1 F1800
G3 X108.064 Y88.089 I.664 J.643 E.03177
G3 X107.764 Y89.363 I-1.745 J.261 E.03911
G1 X107.764 Y90.636 E.03715
G3 X108.067 Y91.911 I-1.41 J1.008 E.03919
G3 X107.061 Y91.694 I-.341 J-.862 E.03185
G1 X107.061 Y88.306 E.09883
G1 E-1.75 F4200
;WIPE_START
G1 F1800
G1 X107.061 Y89.306 E-.75
;WIPE_END
G1 X104.602 Y86.388 Z.35 F24000
G1 X93.371 Y73.058 Z.35
G1 Z.15
G1 E2.5 F2400
G1 F1800
G1 X93.137 Y73.409 E.01233
G1 X93.137 Y77.5 E.11934
G1 X91.15 Y77.5 E.05795
G1 X91.15 Y74.605 E.08446
G1 X90.945 Y74.4 E.00846
G1 X89.055 Y74.4 E.05514
G1 X88.85 Y74.605 E.00846
G1 X88.85 Y77.5 E.08446
G1 X86.863 Y77.5 E.05795
M73 P3 R15
G1 X86.863 Y73.409 E.11934
G1 X86.629 Y73.058 E.01233
G1 X86.629 Y70.474 E.07539
G1 X89.127 Y70.475 E.07288
G2 X90.842 Y70.482 I.862 J-1.089 E.05393
G1 X93.371 Y70.459 E.0738
G1 X93.371 Y72.988 E.07377
G1 E-1.75 F4200
;WIPE_START
G1 F1800
G1 X93.371 Y71.988 E-.75
;WIPE_END
G1 X90.713 Y74.726 Z.35 F24000
G1 X88.429 Y77.079 Z.35
G1 Z.15
G1 E2.5 F2400
G1 F1800
G1 X87.284 Y77.079 E.03339
G1 X87.284 Y73.282 E.11078
G1 X87.05 Y72.93 E.01233
G1 X87.05 Y70.895 E.05937
G1 X89.019 Y70.896 E.05747
G2 X90.955 Y70.902 I.972 J-1.426 E.05993
G1 X92.95 Y70.884 E.05822
G1 X92.95 Y72.93 E.0597
G1 X92.716 Y73.282 E.01233
G1 X92.716 Y77.079 E.11079
G1 X91.571 Y77.079 E.03339
G1 X91.571 Y74.431 E.07726
G1 X91.119 Y73.979 E.01863
G1 X88.881 Y73.979 E.06531
G1 X88.429 Y74.431 E.01863
G1 X88.429 Y77.079 E.07726
G1 X87.804 Y74.32 F24000
G1 F1800
G1 X87.804 Y73.124 E.0349
G1 X87.569 Y72.773 E.01233
G1 X87.569 Y71.415 E.0396
G1 X88.887 Y71.416 E.03844
G2 X91.094 Y71.421 I1.107 J-1.895 E.06746
G1 X92.431 Y71.408 E.039
G1 X92.431 Y72.772 E.03979
G1 X92.196 Y73.124 E.01233
G1 X92.196 Y74.32 E.0349
G1 X91.335 Y73.459 E.03553
G1 X88.665 Y73.459 E.07788
G1 X87.804 Y74.32 E.03553
G1 X88.306 Y72.939 F24000
G1 F1800
G3 X88.089 Y71.935 I.643 J-.664 E.03177
G3 X89.364 Y72.236 I.273 J1.696 E.03919
G1 X90.636 Y72.236 E.03713
G3 X91.911 Y71.933 I1.008 J1.41 E.03919
G3 X91.694 Y72.939 I-.862 J.341 E.03185
G1 X88.306 Y72.939 E.09883
G1 E-1.75 F4200
;WIPE_START
G1 F1800
G1 X89.306 Y72.939 E-.75
;WIPE_END
G1 X91.335 Y76.171 Z.35 F24000
G1 X100.95 Y91.487 Z.35
G1 Z.15
G1 E2.5 F2400
;TYPE:Outer wall
;WIDTH:0.567806
G1 F1800
G1 X100.95 Y99.813 E.27813
;WIDTH:0.571864
G1 X100.948 Y99.86 E.00157
G1 E-1.75 F4200
;WIPE_START
G1 F1800
G1 X100.95 Y99.813 E-.035
G1 X100.95 Y98.86 E-.715
;WIPE_END
G1 X99.86 Y100.948 Z.35 F24000
G1 Z.15
G1 E2.5 F2400
G1 F1800
G1 X99.813 Y100.95 E.00157
;WIDTH:0.567806
G1 X91.487 Y100.95 E.27813
;WIDTH:0.571864
G1 X91.44 Y100.952 E.00157
G1 E-1.75 F4200
;WIPE_START
G1 F1800
G1 X91.487 Y100.95 E-.035
G1 X92.44 Y100.95 E-.715
;WIPE_END
G1 X88.624 Y100.95 Z.35 F24000
G1 X88.513 Y100.95 Z.35
G1 Z.15
G1 E2.5 F2400
;WIDTH:0.567806
G1 F1800
G1 X80.187 Y100.95 E.27813
G1 E-1.75 F4200
;WIPE_START
G1 F1800
G1 X81.187 Y100.95 E-.75
;WIPE_END
G1 X79.052 Y99.86 Z.35 F24000
G1 Z.15
G1 E2.5 F2400
;WIDTH:0.571864
G1 F1800
G1 X79.05 Y99.813 E.00157
;WIDTH:0.567806
G1 X79.05 Y91.487 E.27813
G1 E-1.75 F4200
;WIPE_START
G1 F1800
G1 X79.05 Y92.487 E-.75
;WIPE_END
G1 X79.048 Y88.67 Z.35 F24000
G1 X79.048 Y88.56 Z.35
G1 Z.15
G1 E2.5 F2400
;WIDTH:0.571864
G1 F1800
G1 X79.05 Y88.513 E.00157
;WIDTH:0.567806
G1 X79.05 Y80.187 E.27813
G1 E-1.75 F4200
;WIPE_START
G1 F1800
G1 X79.05 Y81.187 E-.75
;WIPE_END
G1 X80.14 Y79.052 Z.35 F24000
G1 Z.15
G1 E2.5 F2400
;WIDTH:0.571864
G1 F1800
G1 X80.187 Y79.05 E.00157
;WIDTH:0.567806
G1 X88.513 Y79.05 E.27813
;WIDTH:0.571864
G1 X88.56 Y79.048 E.00157
G1 E-1.75 F4200
;WIPE_START
G1 F1800
G1 X88.513 Y79.05 E-.035
G1 X87.56 Y79.05 E-.715
;WIPE_END
G1 X91.376 Y79.05 Z.35 F24000
G1 X91.487 Y79.05 Z.35
G1 Z.15
G1 E2.5 F2400
;WIDTH:0.567806
G1 F1800
G1 X99.813 Y79.05 E.27813
G1 E-1.75 F4200
;WIPE_START
G1 F1800
G1 X98.813 Y79.05 E-.75
;WIPE_END
G1 X100.95 Y80.187 Z.35 F24000
M73 P4 R15
G1 Z.15
G1 E2.5 F2400
G1 F1800
G1 X100.95 Y88.513 E.27813
;WIDTH:0.571864
G1 X100.952 Y88.56 E.00157
G1 E-1.75 F4200
;WIPE_START
G1 F1800
G1 X100.95 Y88.513 E-.035
G1 X100.95 Y87.56 E-.715
;WIPE_END
G1 X102.246 Y90.352 Z.35 F24000
G1 Z.15
G1 E2.5 F2400
;WIDTH:0.632851
G1 F1800
G1 X102.201 Y90.361 E.00172
;WIDTH:0.588567
G1 X102.029 Y90.397 E.00612
;WIDTH:0.544283
G1 X101.856 Y90.433 E.00563
;WIDTH:0.499999
G1 X101.698 Y90.532 E.00545
G1 X101.42 Y90.968 E.01507
;WIDTH:0.529398
G1 X101.048 Y91.317 E.01581
;WIDTH:0.567806
G1 X100.95 Y91.487 E.00654
G1 X100.922 Y91.265 E.00747
;WIDTH:0.529398
G1 X100.926 Y90.789 E.01474
;WIDTH:0.499999
G1 X101.023 Y89.973 E.02399
G1 X100.902 Y89.016 E.02812
;WIDTH:0.535932
G1 X100.927 Y88.788 E.00721
;WIDTH:0.571864
G1 X100.952 Y88.56 E.00773
G1 X101.044 Y88.688 E.00529
;WIDTH:0.539406
G1 X101.42 Y89.032 E.01614
;WIDTH:0.499999
G1 X101.757 Y89.529 E.01751
G1 X101.881 Y89.57 E.00381
;WIDTH:0.544283
G1 X102.049 Y89.612 E.00554
;WIDTH:0.588567
G1 X102.218 Y89.654 E.00602
;WIDTH:0.632851
G1 X102.386 Y89.696 E.0065
G1 X102.892 Y89.699 E.01896
;WIDTH:0.602276
G1 X104.75 Y89.7 E.06604
;WIDTH:0.600632
G1 X104.75 Y90.3 E.02128
G1 X104.45 Y90.3 E.01063
;WIDTH:0.602613
G1 X102.883 Y90.301 E.05573
;WIDTH:0.632851
G1 X102.374 Y90.326 E.0191
G1 X102.285 Y90.344 E.00339
G1 X101.573 Y89.942 F24000
;TYPE:Inner wall
;WIDTH:0.563544
G1 F1800
G2 X101.607 Y90 I-.029 J.055 E.01065
G1 E-1.75 F4200
;WIPE_START
G1 F1800
G1 X101.573 Y90.058 E-.15
G1 X101.507 Y90.058 E-.15
G1 X101.474 Y90 E-.15
G1 X101.507 Y89.942 E-.15
G1 X101.573 Y89.942 E-.15
;WIPE_END
G1 X101.062 Y86.161 Z.35 F24000
G1 X100.1 Y79.041 Z.35
G1 Z.15
G1 E2.5 F2400
;TYPE:Outer wall
;WIDTH:0.573032
G1 F1800
G1 X100.258 Y79.037 E.00532
G1 X100.888 Y79.112 E.02141
G1 X100.962 Y79.734 E.02111
G1 X100.95 Y80.187 E.01529
;WIDTH:0.570766
G1 X100.866 Y80.003 E.00679
;WIDTH:0.573032
G3 X99.997 Y79.134 I22.398 J-23.267 E.04145
;WIDTH:0.570766
G1 X99.813 Y79.05 E.00679
;WIDTH:0.573032
G1 X100.06 Y79.043 E.00833
G1 E-1.75 F4200
;WIPE_START
G1 F1800
G1 X100.258 Y79.037 E-.14821
G1 X100.888 Y79.112 E-.4761
G1 X100.908 Y79.279 E-.12569
;WIPE_END
G1 X97.338 Y77.929 Z.35 F24000
G1 X90.251 Y75.25 Z.35
G1 Z.15
G1 E2.5 F2400
;WIDTH:0.600618
G1 F1800
G1 X90.3 Y75.25 E.00172
G1 X90.3 Y75.55 E.01063
;WIDTH:0.602613
G1 X90.301 Y77.117 E.05573
;WIDTH:0.627435
G1 X90.328 Y77.626 E.01892
G1 X90.363 Y77.799 E.00654
;WIDTH:0.584957
G1 X90.398 Y77.971 E.00607
;WIDTH:0.542478
G1 X90.433 Y78.144 E.00561
;WIDTH:0.499999
G1 X90.532 Y78.302 E.00545
G1 X90.968 Y78.58 E.01507
;WIDTH:0.529398
G1 X91.317 Y78.952 E.01581
;WIDTH:0.567806
G1 X91.487 Y79.05 E.00654
G1 X91.265 Y79.078 E.00747
;WIDTH:0.529398
G1 X90.789 Y79.074 E.01474
;WIDTH:0.499999
G1 X89.973 Y78.977 E.02399
G1 X89.016 Y79.098 E.02812
;WIDTH:0.535932
G1 X88.788 Y79.073 E.00721
;WIDTH:0.571864
G1 X88.56 Y79.048 E.00773
G1 X88.688 Y78.956 E.00529
;WIDTH:0.539406
G1 X89.032 Y78.58 E.01614
;WIDTH:0.499999
G1 X89.529 Y78.243 E.01751
G1 X89.57 Y78.119 E.00381
;WIDTH:0.543888
G1 X89.612 Y77.949 E.0056
;WIDTH:0.587777
G1 X89.654 Y77.778 E.00608
;WIDTH:0.631666
G1 X89.696 Y77.608 E.00656
G1 X89.699 Y77.108 E.01869
;WIDTH:0.602276
G1 X89.7 Y75.25 E.06605
;WIDTH:0.600618
G1 X90.211 Y75.25 E.01813
G1 E-1.75 F4200
;WIPE_START
G1 F1800
G1 X90.3 Y75.25 E-.06643
G1 X90.3 Y75.55 E-.22499
G1 X90.301 Y76.162 E-.45858
;WIPE_END
G1 X90.033 Y78.402 Z.35 F24000
G1 Z.15
G1 E2.5 F2400
;TYPE:Inner wall
;WIDTH:0.563544
G1 F1800
G2 X90.066 Y78.46 I-.029 J.055 E.01065
G1 E-1.75 F4200
;WIPE_START
G1 F1800
G1 X90.033 Y78.517 E-.15
G1 X89.967 Y78.517 E-.15
G1 X89.934 Y78.46 E-.15
G1 X89.967 Y78.402 E-.15
G1 X90.033 Y78.402 E-.15
;WIPE_END
G1 X86.256 Y78.944 Z.35 F24000
G1 X79.176 Y79.961 Z.35
G1 Z.15
G1 E2.5 F2400
;TYPE:Outer wall
;WIDTH:0.573033
G1 F1800
G1 X79.134 Y80.003 E.00199
;WIDTH:0.570766
G1 X79.05 Y80.187 E.00679
;WIDTH:0.573033
G1 X79.037 Y79.742 E.01499
G1 X79.112 Y79.112 E.02141
G1 X79.734 Y79.038 E.02111
G1 X80.14 Y79.052 E.01372
;WIDTH:0.572391
G1 X80.001 Y79.132 E.00541
;WIDTH:0.573033
G1 X79.204 Y79.933 E.0381
G1 E-1.75 F4200
;WIPE_START
G1 F1800
G1 X79.134 Y80.003 E-.07429
G1 X79.05 Y80.187 E-.15163
G1 X79.037 Y79.742 E-.33333
G1 X79.067 Y79.49 E-.19075
;WIPE_END
G1 X78.894 Y83.302 Z.35 F24000
G1 X78.635 Y88.982 Z.35
G1 Z.15
G1 E2.5 F2400
;WIDTH:0.539406
G1 F1800
G1 X78.956 Y88.688 E.01377
;WIDTH:0.571864
G1 X79.048 Y88.56 E.00529
G1 X79.074 Y88.775 E.0073
;WIDTH:0.535932
G1 X79.1 Y88.991 E.00682
;WIDTH:0.499999
G2 X78.977 Y90.027 I454.729 J54.411 E.03045
G1 X79.098 Y90.984 E.02812
;WIDTH:0.533903
G1 X79.074 Y91.235 E.0079
;WIDTH:0.567806
G1 X79.05 Y91.487 E.00844
G1 X78.952 Y91.317 E.00654
;WIDTH:0.529398
G1 X78.58 Y90.968 E.01581
;WIDTH:0.499999
G1 X78.243 Y90.471 E.01751
G1 X78.119 Y90.43 E.00381
;WIDTH:0.544283
G1 X77.951 Y90.388 E.00554
;WIDTH:0.588567
G1 X77.782 Y90.346 E.00602
;WIDTH:0.63285
G1 X77.614 Y90.304 E.0065
G1 X77.108 Y90.301 E.01896
;WIDTH:0.602276
